X:18
T:Humu-Pekka (Hobo Peter)
M:2/4
L:1/16
Q:1/4=80
S:arr. Eira Mattsson (Washington DC Finlandia Foundation) ~1976
R:jenkka
K:Am
"Am" A,A,CE AAAE | "Dm" FFFD "Am" E2E2 |
"Dm" D2DB, "Am" CCCA, | "E7" B,2EF EDCB, | !
"Am" A,A,CE AAAE | "Dm" FFFD "Am" E2E2 |
c2cA "E7" BBB^G | "Am" A2A2 A2 z2 | !
|: "Dm" FFdc B2B2 | "Am" EEcB A2A2 |
"Dm" F2FD "Am" E2EE | "E7" E2cB "Am" A2 z2 :||

